X:1
L:1/4
Q:1/4=72
M:3/8
V:1
V:2 clef=bass 
K:C
[V:1] [DF_B] [DFA]/ | [DF^G] [DFG]/ | [CEA] z/ | [EB]/ z |
[V:2] _B,,/4B,,/4B,,/4B,,/4B,,/4B,,/4 | =B,,/4B,,/4B,,/4B,,/4B,,/4B,,/4 | C, z/ | [E,^G,]/ z |
